X: 8
T: Mouse In The Mug, The
C: Tom McElvogue
Z: Nigel Gatherer
S: https://thesession.org/tunes/362#setting52946
R: jig
M: 6/8
L: 1/8
K: Gmaj
|:G3 EGD|G3 Bdg|e=fe dBA|GAB AGE|
GFG EGD|GFG Bdg|e=fe dBA|1BGF GDE:|2BGF GBd||
g2b agf|efe edB|D2g edB|ABA ABd|
g2b agf|efe edB|D2g edB|AGF GBd|
g2b agf|efe edB|D2g edB|ABA ABd|
GFG EGD|GFG Bdg|e=fe dBA|BGF GDE||

